X:148
T:The Tar Road to Sligo
T:Coleman's
M:6/8
L:1/8
R:jig
N:Set is ~ - Paddy Clancy's
K:D
e|fdB Bcd|ecA BAG|FAA ABc|dcd efg|
fdB Bcd|ecA BAG|FAA Aag|edc d2::
B|Adf Adf|gfg efg|afd dcd|Bed cBA|
[1 Adf Adf|gfg efg|afd bge|edc d2:|
[2 fdB gec|afd bge|a^ga b=ge|edc d2||
